X: 11472
T: Echoes Of Killarney
R: slide
M: 12/8
K: Amajor
|:c|A3 A2 B c2 f f2 c|e2 c B2 c e2 c B2 G|
A2 G A2 B c2 f f2 c|e2 c B2 c A2 G F2:|
|:e|a2 g f2 e f2 g a2 f|e2 c B2 c e2 c B2 b|
a2 g f2 e f2 g a2 f|e2 c B2 G A3- A2:|

